site/_assets/img/05.svg

<svg viewBox="0 0 500 500" xmlns="http://www.w3.org/2000/svg">
<path d="M117.25 475H190.15V90.7H282.85C337.75 90.7 368.35 115 368.35 171.7C368.35 228.4 339.55 257.2 288.25 257.2H158.65V322.9H298.15C393.55 322.9 446.65 258.1 446.65 169.9C446.65 81.7001 385.45 25 291.85 25H117.25V475ZM53.35 475H287.35V409.3H53.35V475ZM53.35 90.7H223.45V25H53.35V90.7Z" fill="#FFFFFF"/>
</svg>

<svg viewBox="0 0 500 500" xmlns="http://www.w3.org/2000/svg"><path d="m117.25 475h72.9v-384.3h92.7c54.9 0 85.5 24.3 85.5 81s-28.8 85.5-80.1 85.5h-129.6v65.7h139.5c95.4 0 148.5-64.8 148.5-153 0-88.1999-61.2-144.9-154.8-144.9h-174.6zm-63.9 0h234v-65.7h-234zm0-384.3h170.1v-65.7h-170.1z" fill="#fafafa"/></svg>
